resources/images/BoatIcon.svg

<svg xmlns="http://www.w3.org/2000/svg" width="600" height="496" shape-rendering="geometricPrecision" image-rendering="optimizeQuality" fill-rule="evenodd" xmlns:v="https://vecta.io/nano"><path d="M248.5-.5h102c4.797.830032 8.297 3.4967 10.5 8l8.5 35 106 1.5c14.229 5.8962 24.063 16.0629 29.5 30.5l12.5 108c-13.162-3.66-25.996-8.327-38.5-14L466.5 84c-49.249-1.4905-98.582-1.9905-148-1.5v30c-7.196-1.513-14.363-3.18-21.5-5-5.52 1.172-11.02 2.506-16.5 4v-29c-48.668-.1667-97.334 0-146 .5-2.468 2.2283-3.635 5.0617-3.5 8.5l-10.5 76c-12.471 6.379-25.4709 11.379-39 15L95 74.5c5.379-14.0449 14.879-24.2116 28.5-30.5l107-.5c1.666-12.1651 4.166-24.1651 7.5-36 2.271-4.45551 5.771-7.122173 10.5-8z" opacity=".978"/><path d="M295.5 117.5l222 77.5c11.536 3.169 20.036 10.003 25.5 20.5.909 6.112.576 12.112-1 18l-83 145c-6.883 11.269-14.383 22.102-22.5 32.5-1.667.667-3.333.667-5 0-11.246-3.083-22.58-5.75-34-8-12.639-1.419-24.972-.085-37 4-12.513 5.06-25.179 9.727-38 14-15 4.667-30 4.667-45 0l-50-18c-21.514-4.181-42.181-1.514-62 8-1.333.667-2.667.667-4 0-5.484-5.824-10.65-11.991-15.5-18.5l-89-158c-5.1493-16.865.3507-28.698 16.5-35.5l222-81.5z" opacity=".994"/><path d="M599.5 414.5v10c-9.27.701-17.603 3.868-25 9.5-13.263 10.592-25.929 21.925-38 34-10.584 9.239-22.251 16.906-35 23-5.374 1.84-10.707 3.34-16 4.5h-14c-6.691-1.248-13.358-3.081-20-5.5-13.174-5.725-26.507-11.058-40-16-13.325-3.305-26.658-3.305-40 0l-51 18c-13.667 3.333-27.333 3.333-41 0l-52-18c-13.667-3.333-27.333-3.333-41 0-14.002 4.889-27.668 10.555-41 17-19.717 1.237-37.717-3.763-54-15-13.5868-10.249-26.5868-21.249-39-33-9.9212-8.13-20.9212-14.463-33-19-6.5683-1.785-13.23492-2.951-20-3.5v-7c20.518-4.567 40.518-2.734 60 5.5 11.2552 4.53 22.5885 8.863 34 13 16.317 4.464 32.65 4.464 49 0l46-18c13.692-2.946 27.358-2.612 41 1l45 16c13.178 3.726 26.512 4.392 40 2 17.868-5.4 35.534-11.4 53-18 14.69-4.345 29.356-4.345 44 0l46 17c16.645 3.24 33.312 3.24 50 0l38-16c15.692-4.974 31.692-6.308 48-4 2.141.573 4.141 1.406 6 2.5z" opacity=".98"/></svg>

<?xml version="1.0" encoding="UTF-8"?>
<!DOCTYPE svg PUBLIC "-//W3C//DTD SVG 1.1//EN" "http://www.w3.org/Graphics/SVG/1.1/DTD/svg11.dtd">
<svg xmlns="http://www.w3.org/2000/svg" version="1.1" width="600px" height="496px" style="shape-rendering:geometricPrecision; text-rendering:geometricPrecision; image-rendering:optimizeQuality; fill-rule:evenodd; clip-rule:evenodd" xmlns:xlink="http://www.w3.org/1999/xlink">
<g><path style="opacity:0.978" fill="#000000" d="M 248.5,-0.5 C 282.5,-0.5 316.5,-0.5 350.5,-0.5C 355.297,0.330032 358.797,2.9967 361,7.5C 363.992,19.1354 366.826,30.8021 369.5,42.5C 404.829,43.3332 440.162,43.8332 475.5,44C 489.729,49.8962 499.563,60.0629 505,74.5C 509.423,110.477 513.59,146.477 517.5,182.5C 504.338,178.84 491.504,174.173 479,168.5C 474.954,140.299 470.788,112.133 466.5,84C 417.251,82.5095 367.918,82.0095 318.5,82.5C 318.5,92.5 318.5,102.5 318.5,112.5C 311.304,110.987 304.137,109.32 297,107.5C 291.48,108.672 285.98,110.006 280.5,111.5C 280.5,101.833 280.5,92.1667 280.5,82.5C 231.832,82.3333 183.166,82.5 134.5,83C 132.032,85.2283 130.865,88.0617 131,91.5C 127.662,116.876 124.162,142.209 120.5,167.5C 108.029,173.879 95.0291,178.879 81.5,182.5C 85.8348,146.488 90.3348,110.488 95,74.5C 100.379,60.4551 109.879,50.2884 123.5,44C 159.165,43.5 194.832,43.3333 230.5,43.5C 232.166,31.3349 234.666,19.3349 238,7.5C 240.271,3.04449 243.771,0.377827 248.5,-0.5 Z"/></g>
<g><path style="opacity:0.994" fill="#000000" d="M 295.5,117.5 C 369.578,143.026 443.578,168.86 517.5,195C 529.036,198.169 537.536,205.003 543,215.5C 543.909,221.612 543.576,227.612 542,233.5C 514.08,281.67 486.414,330.004 459,378.5C 452.117,389.769 444.617,400.602 436.5,411C 434.833,411.667 433.167,411.667 431.5,411C 420.254,407.917 408.92,405.25 397.5,403C 384.861,401.581 372.528,402.915 360.5,407C 347.987,412.06 335.321,416.727 322.5,421C 307.5,425.667 292.5,425.667 277.5,421C 260.833,415 244.167,409 227.5,403C 205.986,398.819 185.319,401.486 165.5,411C 164.167,411.667 162.833,411.667 161.5,411C 156.016,405.176 150.85,399.009 146,392.5C 116.333,339.833 86.6667,287.167 57,234.5C 51.8507,217.635 57.3507,205.802 73.5,199C 147.697,172.055 221.697,144.888 295.5,117.5 Z"/></g>
<g><path style="opacity:0.98" fill="#000000" d="M 599.5,414.5 C 599.5,417.833 599.5,421.167 599.5,424.5C 590.23,425.201 581.897,428.368 574.5,434C 561.237,444.592 548.571,455.925 536.5,468C 525.916,477.239 514.249,484.906 501.5,491C 496.126,492.84 490.793,494.34 485.5,495.5C 480.833,495.5 476.167,495.5 471.5,495.5C 464.809,494.252 458.142,492.419 451.5,490C 438.326,484.275 424.993,478.942 411.5,474C 398.175,470.695 384.842,470.695 371.5,474C 354.576,480.197 337.576,486.197 320.5,492C 306.833,495.333 293.167,495.333 279.5,492C 262.176,486.007 244.843,480.007 227.5,474C 213.833,470.667 200.167,470.667 186.5,474C 172.498,478.889 158.832,484.555 145.5,491C 125.783,492.237 107.783,487.237 91.5,476C 77.9132,465.751 64.9132,454.751 52.5,443C 42.5788,434.87 31.5788,428.537 19.5,424C 12.9317,422.215 6.26508,421.049 -0.5,420.5C -0.5,418.167 -0.5,415.833 -0.5,413.5C 20.018,408.933 40.018,410.766 59.5,419C 70.7552,423.53 82.0885,427.863 93.5,432C 109.817,436.464 126.15,436.464 142.5,432C 157.833,426 173.167,420 188.5,414C 202.192,411.054 215.858,411.388 229.5,415C 244.576,420.136 259.576,425.47 274.5,431C 287.678,434.726 301.012,435.392 314.5,433C 332.368,427.6 350.034,421.6 367.5,415C 382.19,410.655 396.856,410.655 411.5,415C 426.833,420.667 442.167,426.333 457.5,432C 474.145,435.24 490.812,435.24 507.5,432C 520.167,426.667 532.833,421.333 545.5,416C 561.192,411.026 577.192,409.692 593.5,412C 595.641,412.573 597.641,413.406 599.5,414.5 Z"/></g>
</svg>
